X: 100460
M: C|
L: 1/8
K: C
uc |\
(Gc)Bc EcBc | (ec)(gc) (ac)(gc) | GcBd cagf | e2c2 c2 :|
|: ue |\
(ga)gf (ef)ed | (cd)cB (AG)FE | (EG)cG (EF)GE | F2D2 D3f |
(ga)gf (ef)ed | (cd)cB (AG)FE | EGcG Fagf | e2c2 c3 :|


